nalufx-ui/ui/assets/information.svg

<svg fill="none" height="20" viewBox="0 0 20 20" width="20" xmlns="http://www.w3.org/2000/svg"><path d="m9 15h2v-6h-2zm1-8c.2833 0 .521-.096.713-.288.1913-.19133.287-.42867.287-.712s-.0957-.521-.287-.713c-.192-.19133-.4297-.287-.713-.287-.28333 0-.52067.09567-.712.287-.192.192-.288.42967-.288.713s.096.52067.288.712c.19133.192.42867.288.712.288zm0 13c-1.38333 0-2.68333-.2627-3.9-.788-1.21667-.5247-2.275-1.237-3.175-2.137s-1.61233-1.9583-2.137-3.175c-.525333-1.2167-.788-2.5167-.788-3.9 0-1.38333.262667-2.68333.788-3.9.52467-1.21667 1.237-2.275 2.137-3.175s1.95833-1.61267 3.175-2.138c1.21667-.524667 2.51667-.787 3.9-.787 1.3833 0 2.6833.262333 3.9.787 1.2167.52533 2.275 1.238 3.175 2.138s1.6123 1.95833 2.137 3.175c.5253 1.21667.788 2.51667.788 3.9 0 1.3833-.2627 2.6833-.788 3.9-.5247 1.2167-1.237 2.275-2.137 3.175s-1.9583 1.6123-3.175 2.137c-1.2167.5253-2.5167.788-3.9.788zm0-2c2.2333 0 4.125-.775 5.675-2.325s2.325-3.4417 2.325-5.675c0-2.23333-.775-4.125-2.325-5.675s-3.4417-2.325-5.675-2.325c-2.23333 0-4.125.775-5.675 2.325s-2.325 3.44167-2.325 5.675c0 2.2333.775 4.125 2.325 5.675s3.44167 2.325 5.675 2.325z" fill="#896fff"/></svg>

<svg width="20" height="20" viewBox="0 0 20 20" fill="none" xmlns="http://www.w3.org/2000/svg">
<path d="M9 15H11V9H9V15ZM10 7C10.2833 7 10.521 6.904 10.713 6.712C10.9043 6.52067 11 6.28333 11 6C11 5.71667 10.9043 5.479 10.713 5.287C10.521 5.09567 10.2833 5 10 5C9.71667 5 9.47933 5.09567 9.288 5.287C9.096 5.479 9 5.71667 9 6C9 6.28333 9.096 6.52067 9.288 6.712C9.47933 6.904 9.71667 7 10 7ZM10 20C8.61667 20 7.31667 19.7373 6.1 19.212C4.88333 18.6873 3.825 17.975 2.925 17.075C2.025 16.175 1.31267 15.1167 0.788 13.9C0.262667 12.6833 0 11.3833 0 10C0 8.61667 0.262667 7.31667 0.788 6.1C1.31267 4.88333 2.025 3.825 2.925 2.925C3.825 2.025 4.88333 1.31233 6.1 0.787C7.31667 0.262333 8.61667 0 10 0C11.3833 0 12.6833 0.262333 13.9 0.787C15.1167 1.31233 16.175 2.025 17.075 2.925C17.975 3.825 18.6873 4.88333 19.212 6.1C19.7373 7.31667 20 8.61667 20 10C20 11.3833 19.7373 12.6833 19.212 13.9C18.6873 15.1167 17.975 16.175 17.075 17.075C16.175 17.975 15.1167 18.6873 13.9 19.212C12.6833 19.7373 11.3833 20 10 20ZM10 18C12.2333 18 14.125 17.225 15.675 15.675C17.225 14.125 18 12.2333 18 10C18 7.76667 17.225 5.875 15.675 4.325C14.125 2.775 12.2333 2 10 2C7.76667 2 5.875 2.775 4.325 4.325C2.775 5.875 2 7.76667 2 10C2 12.2333 2.775 14.125 4.325 15.675C5.875 17.225 7.76667 18 10 18Z" fill="#896FFF"/>
</svg>
